X: 2036
T: Zaman Olur Gönül Susar
C: Selahattin İçli
O: Turkey
F: http://compmusic.upf.edu/node/140
N: buselik--sarki--duyek--zaman_olur--selahattin_icli
N: makam= buselik
N: form= sarki
N: usul= duyek = 8/4
M: 8/4
L: 1/16
K: C    
Q: 1/4=348
%%MIDI tuningsystem comma53
B2 c4 B2 c2 G2 A2 B2  | c2 G4 A2 (3B2c2d2 (3c2d2e2  | \
w:  ARANAĞME  |   | 
d2 e4 a2 g2 f2 e2 d2  | 
w:   | 
(3f2e2d2 (3f2e2d2 (3f2e2d2 (3c2B2A2  | \
w:   | 
B2 c4 B2 c3B A2 ^G2  | A2 ^G4 A2 c8  | 
w:   |   | 
c2 B4 c2 B8  | A2 B4 ^G2 A4 c4  | B2 c4 B2 c2 G2 A2 B2  | \
w:   |   |  ARANAĞME  | 
c2 G4 A2 (3B2c2d2 (3c2d2e2  | 
w:   | 
d2 e4 a2 g2 f2 e2 d2  | (3f2e2d2 (3f2e2d2 (3f2e2d2 (3c2B2A2  | \
w:   |   | 
B2 c4 B2 c3B A2 ^G2  | 
w:   | 
A2 ^G4 A2 c8  | c2 B4 c2 B8  | A2 B4 ^G2 A4 c4  | \
w:   |   |   | 
B2 c4 B2 A8  | B2 c4 d2 e6 z2  | 
w:  Za man  o lur   |  gö nül  su sar    | 
B2 c4 B2 c8  | B2 A4 ^G2 A6 z2  | B2 c4 B2 A8  | \
w:  Za man  o lur   |  a teş le nir    |  Za man  o lur   | 
B2 c4 d2 e6 z2  | B2 c4 B2 c8  | 
w:  gö nül  su sar    |  Za man  o lur   | 
B2 A4 ^G2 A6 z2  | d2 e4 e2 e8  | d2 f4 f2 f6 z2  | \
w:  a teş le nir    |  Gü lüş le ri   |  ü mit  sa rar    | 
a2 a4 a2 e8  | f2 .e2 z2 g2 .e4 z4  | 
w:  So rar sı nız   |  ne dir  ne dir    | 
d2 e4 g2 f8  | e2 d4 c2 B6 z2  | B2 c4 A2 G8  | \
w:  Gü lüş le ri   |  ü mit  sa rar    |  So rar sı nız   | 
A2 .G2 z2 c2 .c4 z4  | A2 B4 ^G2 A4 z2 A2  | 
w:  ne dir  ne dir    |  Bu  hal  ne dir   Ve   | 
a6 a2 a8  | a2 b4 g2 a6 z2  | g2 .g4 z2 f2 f6  | \
w:  bir  sa bah   |  ba kar sı nız    |  Du rur  a kıp   | 
d2 e4 f2 e4 z2 e2  | a6 a2 a8  | 
w:  gi den  su lar   Ve   |  bir  sa bah   | 
a2 b4 g2 a6 z2  | g2 .g4 z2 f2 f6  | \
w:  ba kar sı nız    |  Du rur  a kıp   | 
d2 e4 g2 e6 z2  | d2 e4 e2 e8  | d2 f4 f2 f6 z2  | 
w:  gi den  su lar    |  İ çin  i çin   |  he ves  do lar    | 
a2 a4 a2 a8  | f2 .e2 z2 g2 .e4 z4  | \
w:  So rar sı nız   |  ni çin  ni çin    | 
d2 e4 g2 f8  | e2 d4 c2 B6 z2  | B2 c4 A2 G8  | 
w:  İ çin  i çin   |  he ves  do lar    |  So rar sı nız   | 
A2 .G2 z2 c2 .c4 z4  | A2 B4 ^G2 A6 z2  | \
w:  ne dir  ne dir    |  Bu  hal  ne dir    | 
B2 c4 B2 c2 G2 A2 B2  | c2 G4 A2 (3B2c2d2 (3c2d2e2  | 
w:  SAZ  |   | 
d2 e4 a2 g2 f2 e2 d2  | (3f2e2d2 (3f2e2d2 (3f2e2d2 (3c2B2A2  | \
w:   |   | 
B2 c4 B2 c3B A2 ^G2  | 
w:   | 
A2 ^G4 A2 c8  | c2 B4 c2 B8  | A2 B4 ^G2 A4 c'4  | \
w:   |   |   | 
b2 c'4 c'2 c'8  | c'2 b4 c'2 b6 z2  | 
w:  Ka der  ku şu   |  ka fes te dir    | 
a2 b4 b2 b8  | a2 ^g4 a2 b6 z2  | b2 c'4 c'2 c'8  | \
w:  Gö nül  co şan   |  bu  ses te dir    |  Ka der  ku şu   | 
c'2 b4 c'2 b6 z2  | a2 b4 b2 b8  | 
w:  ka fes te dir    |  Gö nül  co şan   | 
a2 ^g4 a2 g6 z2  | a2 ^g4 f2 e8  | f2 .e2 z2 ^g2 .e4 z4  | \
w:  bu  ses te dir    |  So rar sı nız   |  ne dir  ne dir    | 
d2 c4 d2 e8  | B2 c4 A2 G8  | 
w:  Bu  hal  ne dir    |  Bu  aşk  SAZ  | 
B2 c4 d2 e8  | B2 c4 ^G2 A8  | |


